www/assets/icons/raw_off.svg

<svg width="24" height="24" viewBox="0 0 24 24" xmlns="http://www.w3.org/2000/svg" fill='currentColor'><path d="M17.715 13.6101L18.305 11.2501L19.065 14.2901H20.545L22.045 8.2901H20.545L19.805 11.2901L19.065 8.2901H17.545L16.805 11.2901L16.065 8.2901H14.565L15.285 11.1901L17.715 13.6101Z"/><path d="M1.95496 3.5101L6.73496 8.2901H3.56496V14.2901H5.06496V12.2901H6.16496L7.06496 14.2901H8.56496L7.66496 12.1901C8.16496 11.8901 8.56496 11.3901 8.56496 10.7901V10.1201L9.99496 11.5501L9.31496 14.2901H10.815L11.195 12.7901H11.235L20.345 21.9001L21.755 20.4901L3.37496 2.1001L1.95496 3.5101ZM7.06496 10.7901H5.06496V9.7901H7.06496V10.7901Z"/></svg>

<svg xmlns="http://www.w3.org/2000/svg" width="24" height="24" viewBox="0 0 24 24" fill='currentColor'><path d="m17.715 13.61.59-2.36.76 3.04h1.48l1.5-6h-1.5l-.74 3-.74-3h-1.52l-.74 3-.74-3h-1.5l.72 2.9zM1.955 3.51l4.78 4.78h-3.17v6h1.5v-2h1.1l.9 2h1.5l-.9-2.1c.5-.3.9-.8.9-1.4v-.67l1.43 1.43-.68 2.74h1.5l.38-1.5h.04l9.11 9.11 1.41-1.41L3.375 2.1zm5.11 7.28h-2v-1h2z"/></svg>
